icon/community.svg

<?xml version="1.0" encoding="UTF-8"?>
<svg width="50px" height="50px" viewBox="0 0 50 50" version="1.1" xmlns="http://www.w3.org/2000/svg" xmlns:xlink="http://www.w3.org/1999/xlink">
    <!-- Generator: Sketch 47.1 (45422) - http://www.bohemiancoding.com/sketch -->
    <title>4</title>
    <desc>Created with Sketch.</desc>
    <defs>
        <polygon id="path-1" points="0 25.00005 0 50 50 50 50 25.00005 50 0.0001 0 0.0001"></polygon>
    </defs>
    <g id="Page-1" stroke="none" stroke-width="1" fill="none" fill-rule="evenodd">
        <g id="绑定手机号3-copy" transform="translate(-303.000000, -268.000000)">
            <g id="4" transform="translate(303.000000, 268.000000)">
                <g id="Group-3">
                    <mask id="mask-2" fill="white">
                        <use xlink:href="#path-1"></use>
                    </mask>
                    <g id="Clip-2"></g>
                    <path d="M25,48.0801 C12.253,48.0801 1.92,37.7471 1.92,25.0001 C1.92,12.2531 12.253,1.9201 25,1.9201 C37.747,1.9201 48.08,12.2531 48.08,25.0001 C48.063,37.7401 37.74,48.0631 25,48.0801 M25,0.0001 C11.193,0.0001 0,11.1931 0,25.0001 C0,38.8071 11.193,50.0001 25,50.0001 C38.807,50.0001 50,38.8071 50,25.0001 C50,11.1931 38.807,0.0001 25,0.0001" id="Fill-1" fill="#7ECA60" mask="url(#mask-2)"></path>
                </g>
                <path d="M29.2803,20.8799 C28.3093,20.9339 27.5643,21.7589 27.6103,22.7299 L27.6103,25.9299 C27.5093,26.8529 28.1753,27.6819 29.0963,27.7829 C30.0193,27.8839 30.8483,27.2189 30.9503,26.2959 C30.9633,26.1749 30.9633,26.0519 30.9503,25.9299 L30.9503,22.7299 C30.9953,21.7589 30.2503,20.9339 29.2803,20.8799" id="Fill-4" fill="#7ECA60"></path>
                <path d="M33.2002,36.3398 L17.4002,36.3398 C14.5082,36.0588 12.2332,33.7458 12.0002,30.8498 L12.0002,17.7398 C12.3512,15.2398 14.2882,13.2588 16.7802,12.8498 L16.7802,12.7698 L23.8502,12.7698 L26.2902,12.7698 L26.3892,12.7698 L29.7692,12.8198 C30.4902,12.8198 31.1602,12.8698 31.6102,12.9198 C34.4192,13.4118 36.3932,15.9578 36.1702,18.7998 C36.0902,22.9398 36.1702,32.2798 36.1702,32.2798 L38.0192,37.2798 L33.2002,36.3398 Z M25.0002,3.9998 C13.4022,3.9998 4.0002,13.4018 4.0002,24.9998 C4.0002,36.5978 13.4022,45.9998 25.0002,45.9998 C36.5972,45.9998 46.0002,36.5978 46.0002,24.9998 C46.0002,13.4018 36.5972,3.9998 25.0002,3.9998 L25.0002,3.9998 Z" id="Fill-6" fill="#7ECA60"></path>
                <path d="M20.7202,20.8799 C19.7502,20.9339 19.0042,21.7589 19.0502,22.7299 L19.0502,25.9299 C18.9492,26.8529 19.6152,27.6819 20.5372,27.7829 C21.4592,27.8839 22.2892,27.2189 22.3902,26.2959 C22.4032,26.1749 22.4032,26.0519 22.3902,25.9299 L22.3902,22.7299 C22.4412,21.7589 21.6952,20.9309 20.7242,20.8799 C20.7232,20.8799 20.7212,20.8799 20.7202,20.8799" id="Fill-8" fill="#7ECA60"></path>
            </g>
        </g>
    </g>
</svg>

<svg id="图层_1" data-name="图层 1" xmlns="http://www.w3.org/2000/svg" viewBox="0 0 50 50"><defs><style>.cls-1{fill:#f64e00;}</style></defs><title>社区</title><path class="cls-1" d="M25,0A25,25,0,1,0,50,25,25,25,0,0,0,25,0Zm0,48.08A23.08,23.08,0,1,1,48.08,25,23.11,23.11,0,0,1,25,48.08Z"/><path class="cls-1" d="M29.28,20.88a1.77,1.77,0,0,0-1.67,1.85v3.2a1.68,1.68,0,1,0,3.34,0v-3.2A1.77,1.77,0,0,0,29.28,20.88Z"/><path class="cls-1" d="M25,4A21,21,0,1,0,46,25,21,21,0,0,0,25,4Zm8.2,32.34H17.4A6,6,0,0,1,12,30.85V17.74a5.77,5.77,0,0,1,4.78-4.89l0-.08,7.07,0,2.44,0h.1l3.38.05c.72,0,1.39.05,1.84.1a5.53,5.53,0,0,1,4.56,5.88c-.08,4.14,0,13.48,0,13.48l1.85,5Z"/><path class="cls-1" d="M20.72,20.88a1.77,1.77,0,0,0-1.67,1.85v3.2a1.68,1.68,0,1,0,3.34,0v-3.2A1.76,1.76,0,0,0,20.72,20.88Z"/></svg>
